dist/img/about/Frame-4.svg

<svg width="76" height="76" viewBox="0 0 76 76" fill="none" xmlns="http://www.w3.org/2000/svg">
<g clip-path="url(#clip0_697_14105)">
<path d="M27.5586 9.46838V4.62012C27.5594 3.86746 27.8588 3.14586 28.391 2.61365C28.9232 2.08143 29.6448 1.78208 30.3975 1.78125H27.4287C26.676 1.78208 25.9545 2.08143 25.4222 2.61365C24.89 3.14586 24.5907 3.86746 24.5898 4.62012V9.46838C24.5898 9.70459 24.496 9.93113 24.329 10.0982C24.162 10.2652 23.9354 10.359 23.6992 10.359H26.668C26.9042 10.359 27.1307 10.2652 27.2977 10.0982C27.4648 9.93113 27.5586 9.70459 27.5586 9.46838Z" fill="#D4E1F4"/>
<path d="M7.74707 53.1034V23.7796C7.74799 23.3984 7.82525 23.0212 7.97428 22.6704C8.12332 22.3195 8.34112 22.002 8.61483 21.7367L19.4953 11.1571C20.0237 10.6441 20.7316 10.3579 21.468 10.3594H18.4993C17.7628 10.3579 17.0549 10.6441 16.5266 11.1571L5.64609 21.7367C5.37237 22.002 5.15457 22.3195 5.00553 22.6704C4.8565 23.0212 4.77924 23.3984 4.77832 23.7796V53.1034C4.78028 54.8449 5.47294 56.5144 6.70432 57.7458C7.9357 58.9772 9.60525 59.6698 11.3467 59.6718H14.3154C12.574 59.6698 10.9044 58.9772 9.67307 57.7458C8.44169 56.5144 7.74903 54.8449 7.74707 53.1034Z" fill="#D4E1F4"/>
<path d="M46.7767 0H27.4287C26.2038 0.0014143 25.0295 0.488629 24.1634 1.35476C23.2972 2.2209 22.81 3.39522 22.8086 4.62012V8.57776H18.4993C17.2998 8.57554 16.1469 9.0421 15.2865 9.87792L13.1149 11.9894L11.7174 10.492L12.6046 9.62677C12.689 9.54446 12.7562 9.44621 12.8024 9.33772C12.8485 9.22923 12.8726 9.11265 12.8734 8.99476C12.8741 8.87687 12.8515 8.76 12.8067 8.65093C12.7619 8.54187 12.696 8.44278 12.6126 8.35941L8.88369 4.62991C8.71805 4.46429 8.49381 4.37059 8.25957 4.36912C8.02533 4.36765 7.79994 4.45852 7.63222 4.62205L0.268829 11.8018C0.184422 11.8841 0.117197 11.9824 0.0710531 12.0909C0.024909 12.1994 0.00076345 12.3159 1.78133e-05 12.4338C-0.000727823 12.5517 0.0219419 12.6686 0.06671 12.7777C0.111478 12.8867 0.177454 12.9858 0.260813 13.0692L3.99031 16.7987C4.15593 16.9643 4.38016 17.058 4.6144 17.0595C4.84864 17.061 5.07404 16.9702 5.24178 16.8067L5.72361 16.3367L7.11313 17.8257L4.40652 20.4574C3.96185 20.889 3.60808 21.4053 3.36605 21.9758C3.12402 22.5463 2.99862 23.1595 2.99726 23.7792V53.1035C2.99977 55.3172 3.88027 57.4395 5.44558 59.0048C7.01089 60.5701 9.13319 61.4506 11.3469 61.4531H43.0476C45.2613 61.4506 47.3836 60.5702 48.949 59.0048C50.5143 57.4395 51.3948 55.3172 51.3972 53.1035V33.1155V13.1274V4.62012C51.3958 3.39514 50.9085 2.22075 50.0423 1.35461C49.1761 0.48846 48.0016 0.00129645 46.7767 0ZM2.15799 12.4474L8.24601 6.51121L10.7159 8.98121L4.62799 14.918L2.15799 12.4474ZM6.99928 15.093L10.4423 11.7358L11.8376 13.2314L8.39073 16.5836L6.99928 15.093ZM49.6157 53.1035C49.6137 54.8449 49.0776 56.3579 47.6898 57.7458C46.302 59.1337 44.789 59.6698 43.0476 59.6719H11.3469C9.60543 59.6699 7.93589 58.9773 6.70451 57.7459C5.47313 56.5145 4.78047 54.845 4.77851 53.1035V23.7797C4.77943 23.3985 4.85668 23.0213 5.00572 22.6704C5.15476 22.3196 5.37256 22.0021 5.64627 21.7367L16.5267 11.1572C17.0551 10.6442 17.763 10.3579 18.4995 10.3595H23.6988C23.935 10.3595 24.1615 10.2656 24.3286 10.0986C24.4956 9.93157 24.5894 9.70504 24.5894 9.46883V4.62012C24.5902 3.86738 24.8897 3.14571 25.422 2.61349C25.9543 2.08126 26.676 1.78196 27.4287 1.78125H46.7767C47.5293 1.78208 48.2509 2.08143 48.7831 2.61365C49.3154 3.14586 49.6147 3.86746 49.6155 4.62012L49.6156 14.7603L49.6157 33.9319L49.6157 53.1035Z" fill="#00415D"/>
<path d="M43.0475 4.47559H31.1576C30.4271 4.47645 29.7268 4.76704 29.2103 5.2836C28.6937 5.80016 28.4032 6.50052 28.4023 7.23103V11.1817C28.4023 11.4179 28.4962 11.6444 28.6632 11.8115C28.8302 11.9785 29.0568 12.0723 29.293 12.0723H37.232C39.01 12.0703 40.7145 11.3631 41.9717 10.1059C43.2289 8.84873 43.9361 7.14417 43.9381 5.36621C43.9381 5.13 43.8443 4.90347 43.6772 4.73644C43.5102 4.56942 43.2837 4.47559 43.0475 4.47559ZM37.232 10.2911H30.1842V7.23103C30.1845 6.97278 30.2872 6.7252 30.4698 6.54257C30.6524 6.35995 30.9 6.25719 31.1582 6.25684H42.0763C41.8665 7.38892 41.2674 8.41197 40.3827 9.14876C39.4979 9.88555 38.3833 10.2897 37.232 10.2911Z" fill="#00415D"/>
<path d="M39.7401 26.6361L28.7351 21.2329C28.5934 21.1632 28.4376 21.127 28.2796 21.127C28.1217 21.127 27.9659 21.1632 27.8242 21.2329L16.8279 26.6212C16.655 26.7075 16.5101 26.8409 16.4098 27.006C16.3094 27.1711 16.2578 27.3613 16.2609 27.5544V37.8624C16.2885 39.1856 16.6013 40.4873 17.1778 41.6787C17.9562 43.3538 19.1137 44.8036 20.365 45.6559L27.7027 50.6575C27.8747 50.7751 28.0781 50.838 28.2865 50.838C28.4948 50.838 28.6982 50.7751 28.8702 50.6575L36.1971 45.6561C38.51 44.0797 40.3077 40.6563 40.3077 37.8613V27.5688C40.3105 27.3757 40.2587 27.1857 40.1583 27.0207C40.0578 26.8557 39.9129 26.7224 39.7401 26.6361ZM38.2296 37.8613C38.2296 39.9674 36.7703 42.7498 35.0266 43.9375L28.2775 48.5407L21.5246 43.9373C20.588 43.2991 19.6766 42.1273 19.0605 40.8019C18.615 39.8837 18.3691 38.8815 18.339 37.8613V28.2019L28.2843 23.3228L38.2296 28.2165V37.8613Z" fill="#087BA8"/>
<path d="M24.3774 35.2471C24.1825 35.0522 23.9182 34.9428 23.6426 34.9428C23.367 34.9428 23.1027 35.0522 22.9079 35.2471C22.713 35.442 22.6035 35.7063 22.6035 35.9819C22.6035 36.2575 22.713 36.5218 22.9079 36.7166L26.0022 39.811C26.0987 39.9075 26.2132 39.984 26.3393 40.0362C26.4654 40.0885 26.6005 40.1153 26.737 40.1153C26.8734 40.1153 27.0085 40.0885 27.1346 40.0362C27.2607 39.984 27.3752 39.9075 27.4717 39.811L33.6616 33.622C33.7581 33.5255 33.8346 33.411 33.8868 33.2849C33.939 33.1588 33.9659 33.0237 33.9659 32.8873C33.9659 32.7508 33.939 32.6157 33.8868 32.4896C33.8346 32.3635 33.7581 32.249 33.6616 32.1525C33.5651 32.056 33.4505 31.9795 33.3245 31.9272C33.1984 31.875 33.0633 31.8481 32.9268 31.8481C32.7903 31.8481 32.6552 31.875 32.5292 31.9272C32.4031 31.9795 32.2885 32.056 32.192 32.1525L26.7378 37.6067L24.3774 35.2471Z" fill="#087BA8"/>
<path d="M40.5908 45.7728L53.5454 27.2046L56.9999 25.9092H68.1363C72.0023 25.9092 75.1363 29.0432 75.1363 32.9092V66.2728C75.1363 70.6911 71.5546 74.2728 67.1363 74.2728H48.5908C44.1725 74.2728 40.5908 70.6911 40.5908 66.2728V45.7728Z" fill="#F5F6F6"/>
<path d="M44.6058 70.2994V49.4785C44.6041 48.565 44.8911 47.6743 45.4258 46.9338L56.466 31.5869C56.87 31.0268 57.4011 30.5705 58.0156 30.2555C58.6301 29.9406 59.3105 29.7759 60.001 29.7751H72.4368C72.9352 29.7749 73.4299 29.8606 73.8992 30.0285C73.5966 29.1823 73.0402 28.4503 72.306 27.9324C71.5719 27.4144 70.6957 27.1359 69.7974 27.1348H57.3615C56.6711 27.1356 55.9906 27.3002 55.3761 27.6152C54.7616 27.9302 54.2305 28.3864 53.8265 28.9466L42.7864 44.2935C42.2516 45.034 41.9646 45.9246 41.9663 46.8381V67.6591C41.9672 68.7304 42.269 69.7798 42.8372 70.6879C43.4055 71.5959 44.2174 72.3258 45.1804 72.7946C44.8013 72.0175 44.6048 71.1641 44.6058 70.2994Z" fill="#D4E1F4"/>
<path d="M47.6741 75.2172H68.4446C70.4478 75.2149 72.3682 74.4179 73.7846 73.001C75.201 71.5841 75.9978 69.663 76 67.6592V31.4914C75.9982 29.8464 75.3441 28.2692 74.1813 27.106C73.0184 25.9428 71.4418 25.2885 69.7973 25.2866H57.3615C56.3781 25.2878 55.409 25.5223 54.5338 25.9709C53.6586 26.4194 52.9023 27.0693 52.3269 27.867L41.2866 43.2139C40.525 44.2686 40.1162 45.5371 40.1187 46.8382V67.6592C40.1209 69.663 40.9177 71.5841 42.3341 73.001C43.7505 74.4179 45.671 75.2149 47.6741 75.2172ZM74.1524 64.1277H51.9638V43.533H74.1524V64.1277ZM41.9663 46.8382C41.9646 45.9247 42.2516 45.0341 42.7864 44.2936L53.8265 28.9467C54.2305 28.3865 54.7616 27.9303 55.3761 27.6153C55.9906 27.3003 56.671 27.1357 57.3615 27.1349H69.7973C70.952 27.1361 72.059 27.5955 72.8755 28.4123C73.6919 29.229 74.1512 30.3364 74.1524 31.4914V41.6848H51.04C50.795 41.6848 50.56 41.7821 50.3868 41.9554C50.2135 42.1287 50.1162 42.3638 50.1162 42.6089V65.0519C50.1162 65.297 50.2135 65.532 50.3868 65.7053C50.56 65.8786 50.795 65.976 51.04 65.976H74.1524V67.6592C74.1507 69.173 73.5488 70.6243 72.4787 71.6947C71.4087 72.7651 69.9579 73.3672 68.4446 73.369H47.6741C46.1608 73.3672 44.71 72.7651 43.64 71.6947C42.5699 70.6243 41.968 69.173 41.9663 67.6592V46.8382Z" fill="#00415D"/>
<path d="M58.5742 24.7862H69.9238C70.1688 24.7862 70.4038 24.6889 70.577 24.5156C70.7503 24.3423 70.8476 24.1072 70.8476 23.8621C70.8476 23.617 70.7503 23.382 70.577 23.2087C70.4038 23.0354 70.1688 22.938 69.9238 22.938H58.5742C58.3292 22.938 58.0942 23.0354 57.921 23.2087C57.7477 23.382 57.6504 23.617 57.6504 23.8621C57.6504 24.1072 57.7477 24.3423 57.921 24.5156C58.0942 24.6889 58.3292 24.7862 58.5742 24.7862Z" fill="#00415D"/>
<path d="M58.5743 22.4103H69.9239C70.3087 22.4099 70.6777 22.2567 70.9499 21.9845C71.222 21.7122 71.3751 21.3431 71.3756 20.9581V16.9976C71.3751 16.6126 71.222 16.2435 70.9499 15.9712C70.6777 15.699 70.3087 15.5459 69.9239 15.5454H58.5743C58.1894 15.5458 57.8204 15.699 57.5482 15.9712C57.2761 16.2435 57.123 16.6126 57.1226 16.9976V20.9581C57.123 21.3431 57.2761 21.7123 57.5482 21.9845C57.8204 22.2568 58.1894 22.4099 58.5743 22.4103ZM63.1933 20.5621V17.3937H65.3048V20.5621H63.1933ZM69.528 20.5621H67.1525V17.3937H69.528V20.5621ZM58.9702 17.3937H61.3457V20.5621H58.9702V17.3937Z" fill="#087BA8"/>
<path d="M63.7617 46.732C63.6782 46.6012 63.5631 46.4935 63.427 46.4189C63.2909 46.3443 63.1382 46.3052 62.9831 46.3052C62.8279 46.3052 62.6752 46.3443 62.5391 46.4189C62.403 46.4935 62.2879 46.6012 62.2044 46.732L58.3131 52.827C57.6396 53.8934 57.3474 55.1567 57.484 56.4106C57.6206 57.6646 58.1781 58.8352 59.0653 59.7315C60.1046 60.7711 61.5142 61.3552 62.984 61.3552C64.4538 61.3552 65.8633 60.7711 66.9026 59.7315C67.7899 58.8352 68.3473 57.6646 68.484 56.4106C68.6206 55.1567 68.3283 53.8934 67.6549 52.827L63.7617 46.732ZM65.5961 58.4245C65.2531 58.7677 64.8458 59.0399 64.3976 59.2256C63.9494 59.4113 63.469 59.5069 62.9839 59.5069C62.4988 59.5069 62.0184 59.4113 61.5702 59.2256C61.122 59.0399 60.7148 58.7677 60.3717 58.4245C59.7803 57.8271 59.4088 57.0468 59.3177 56.211C59.2266 55.3751 59.4214 54.5331 59.8702 53.8223L62.9831 48.9457L66.0976 53.8224C66.5464 54.5332 66.7412 55.3752 66.6501 56.211C66.559 57.0468 66.1875 57.8271 65.5961 58.4245Z" fill="#087BA8"/>
</g>
<defs>
<clipPath id="clip0_697_14105">
<rect width="76" height="76" fill="white"/>
</clipPath>
</defs>
</svg>

<svg width="76" height="76" viewBox="0 0 76 76" fill="none" xmlns="http://www.w3.org/2000/svg"><g clip-path="url(#clip0_697_14105)"><path d="M27.559 9.468V4.62a2.842 2.842 0 012.838-2.839H27.43a2.842 2.842 0 00-2.84 2.84v4.847a.89.89 0 01-.89.891h2.969a.89.89 0 00.89-.89zM7.747 53.103V23.78a2.855 2.855 0 01.868-2.043l10.88-10.58a2.824 2.824 0 011.973-.798h-2.969a2.823 2.823 0 00-1.972.798l-10.88 10.58a2.854 2.854 0 00-.869 2.043v29.323a6.576 6.576 0 006.569 6.569h2.968a6.576 6.576 0 01-6.568-6.569z" fill="#D4E1F4"/><path d="M46.777 0H27.429a4.625 4.625 0 00-4.62 4.62v3.958h-4.31a4.599 4.599 0 00-3.212 1.3l-2.172 2.111-1.398-1.497.888-.865a.892.892 0 00.008-1.268l-3.73-3.73a.89.89 0 00-1.25-.007l-7.364 7.18a.89.89 0 00-.008 1.267l3.73 3.73a.89.89 0 001.25.008l.483-.47 1.39 1.489-2.707 2.631a4.643 4.643 0 00-1.41 3.322v29.324a8.36 8.36 0 008.35 8.35h31.7a8.359 8.359 0 008.35-8.35V4.62A4.625 4.625 0 0046.777 0zM2.158 12.447l6.088-5.936 2.47 2.47-6.088 5.937-2.47-2.47zm4.841 2.646l3.443-3.357 1.396 1.495-3.447 3.353-1.392-1.491zm42.617 38.01c-.002 1.742-.538 3.255-1.926 4.643s-2.901 1.924-4.642 1.926H11.347a6.576 6.576 0 01-6.568-6.569V23.78a2.855 2.855 0 01.867-2.043l10.88-10.58a2.823 2.823 0 011.974-.797h5.199a.891.891 0 00.89-.891V4.62a2.842 2.842 0 012.84-2.839h19.348a2.842 2.842 0 012.838 2.84v48.482z" fill="#00415D"/><path d="M43.047 4.476h-11.89a2.758 2.758 0 00-2.755 2.755v3.95a.891.891 0 00.891.891h7.939a6.714 6.714 0 006.706-6.706.89.89 0 00-.89-.89zm-5.815 5.815h-7.048v-3.06a.975.975 0 01.974-.974h10.918a4.933 4.933 0 01-4.844 4.034z" fill="#00415D"/><path d="M39.74 26.636l-11.005-5.403a1.032 1.032 0 00-.91 0L16.827 26.62a1.025 1.025 0 00-.567.933v10.308a9.202 9.202 0 00.917 3.817c.778 1.675 1.936 3.125 3.187 3.977l7.338 5.002a1.034 1.034 0 001.167 0l7.327-5.002c2.313-1.576 4.11-5 4.11-7.795V27.57a1.026 1.026 0 00-.567-.933zm-1.51 11.225c0 2.106-1.46 4.889-3.203 6.077l-6.75 4.603-6.752-4.604c-.937-.638-1.848-1.81-2.464-3.135a7.224 7.224 0 01-.722-2.94v-9.66l9.945-4.88 9.946 4.895v9.644z" fill="#087BA8"/><path d="M24.377 35.247a1.04 1.04 0 00-1.47 1.47l3.095 3.094a1.038 1.038 0 001.47 0l6.19-6.189a1.038 1.038 0 10-1.47-1.47l-5.454 5.455-2.36-2.36z" fill="#087BA8"/><path d="M40.59 45.773l12.955-18.568L57 25.909h11.136a7 7 0 017 7v33.364a8 8 0 01-8 8H48.591a8 8 0 01-8-8v-20.5z" fill="#F5F6F6"/><path d="M44.606 70.3V49.477a4.333 4.333 0 01.82-2.544l11.04-15.347a4.367 4.367 0 013.535-1.812h12.436c.498 0 .993.086 1.462.254a4.363 4.363 0 00-4.102-2.894H57.362a4.364 4.364 0 00-3.535 1.812l-11.04 15.347a4.332 4.332 0 00-.82 2.544V67.66a5.72 5.72 0 003.213 5.136 5.676 5.676 0 01-.574-2.496z" fill="#D4E1F4"/><path d="M47.674 75.217h20.77A7.563 7.563 0 0076 67.66V31.491a6.213 6.213 0 00-6.203-6.204H57.362a6.216 6.216 0 00-5.035 2.58l-11.04 15.347a6.17 6.17 0 00-1.168 3.624V67.66a7.568 7.568 0 007.555 7.558zm26.478-11.09H51.964V43.534h22.188v20.595zM41.966 46.839a4.332 4.332 0 01.82-2.544l11.04-15.347a4.366 4.366 0 013.535-1.812h12.436a4.359 4.359 0 014.355 4.356v10.194H51.04a.923.923 0 00-.924.924v22.443a.924.924 0 00.924.924h23.112v1.683a5.717 5.717 0 01-5.707 5.71h-20.77a5.714 5.714 0 01-5.709-5.71V46.84zm16.608-22.053h11.35a.923.923 0 100-1.848h-11.35a.924.924 0 000 1.848z" fill="#00415D"/><path d="M58.574 22.41h11.35a1.453 1.453 0 001.452-1.452v-3.96a1.455 1.455 0 00-1.452-1.453h-11.35a1.453 1.453 0 00-1.451 1.453v3.96a1.454 1.454 0 001.451 1.452zm4.62-1.848v-3.168h2.11v3.168h-2.11zm6.334 0h-2.376v-3.168h2.376v3.168zM58.97 17.394h2.376v3.168H58.97v-3.168zm4.792 29.338a.924.924 0 00-1.558 0l-3.89 6.095a5.58 5.58 0 00.751 6.904 5.541 5.541 0 007.838 0 5.58 5.58 0 00.752-6.904l-3.893-6.095zm1.834 11.693a3.693 3.693 0 01-5.224 0 3.719 3.719 0 01-.502-4.603l3.113-4.876 3.115 4.876a3.72 3.72 0 01-.502 4.602z" fill="#087BA8"/></g><defs><clipPath id="clip0_697_14105"><path fill="#fff" d="M0 0h76v76H0z"/></clipPath></defs></svg>
